X: 1
T: Skelton's
M: 3/4
L: 1/8
R: mazurka
K: Gmaj
DG GF G2|DB BA B2|cB AG FG|AG FE D2|
DG GF G2|DB BA B2|cB AG FA|1 G3z GE:|2 G3z Bc||
d2 de dc|B2 G2 AB|c2 cd cB|A3z Bc|
d2 de dc|B2 G2 AB|cB AG FA|1 G3z Bc:|2 G4 z2||
K: Dmaj
Ad dc d2|Af fe f2|gf ed cd|ed cB A2|
Ad dc d2|Af fe f2|gf ed ce|1 d3z dB:|2 d3z fg||
a2 ab ag|f2 d2 ef|g2 ga gf|e3z fg|
a2 ab ag|f2 d2 ef|gf ed ce|1 d3z fg:|2 d4 z2||
